X:1
T:Partita I Sarabande
T:BWV 825
T:J. S. Bach
%%score { ( 1 2 4 5 ) | ( 3 6 ) }
L:1/8
Q:1/4=72
M:3/4
K:Bb
V:1 treble nm="Harp"
V:2 treble 
V:4 treble 
V:5 treble 
V:3 bass 
V:6 bass 
V:1
"^Adagio" d>d d-d/4c/4B/4A/4 B/d/f/G/ | _A/4G/4AA/ A-A/4B/4A/4G/4 A/d/f/A/ | %2
 G/e/4d/4c/4d/4e/ F/d/A/B/ E/A/4B/4c/E/ | F/4E/4F/4E/4F/4E/4D/ D-D/4F/4E/4D/4 E/4F/4G/4A/4B/G/ | %4
 F/=E/G c-c/4d/4=e/4d/4 c/B/A/4B/4G/ | G/^F/A/c/4e/4 e3/2d/4c/4 d/4c/4B/c/4B/4A/ | %6
 (6:4:4B3/4A/4G/4^F/4G/A/ A/G/4A/4B/4c/4d/ d/=e/4f/4g/4f/4e/4f/4 | %7
 g/4c/4B/4A/4B/g/ g-g/4f/4=e/4d/4 c/B/c/4B/4A/ | A/C/4=E/4F/A/ A/F/4G/4A/c/ c/A/4B/4c/f/ | %9
 f/a/4g/4f/4=e/4d/ c/f/4e/4d/4c/4B/ A/c/4B/4A/4G/4F/ | %10
 d/4c/4B/4A/4B/G/ (6:4:4F3/4G/4F/4=E/4F/4D/4B/ F/4E/4F/4E/4F/4E/4F/ | F2 [A,CF]4 | %12
 d>d d-d/4c/4B/4A/4 B/d/f/G/ | _A/4G/4AA/ A-A/4B/4A/4G/4 A/d/f/A/ | %14
 G/e/4d/4c/4d/4e/ F/d/A/B/ E/A/4B/4c/E/ | F/4E/4F/4E/4F/4E/4D/ D-D/4F/4E/4D/4 E/4F/4G/4A/4B/G/ | %16
 F/=E/G c-c/4d/4=e/4d/4 c/B/A/4B/4G/ | G/^F/A/c/4e/4 e3/2d/4c/4 d/4c/4B/c/4B/4A/ | %18
 (6:4:4B3/4A/4G/4^F/4G/A/ A/G/4A/4B/4c/4d/ d/=e/4f/4g/4f/4e/4f/4 | %19
 g/4c/4B/4A/4B/g/ g-g/4f/4=e/4d/4 c/B/c/4B/4A/ | A/C/4=E/4F/A/ A/F/4G/4A/c/ c/A/4B/4c/f/ | %21
 f/a/4g/4f/4=e/4d/ c/f/4e/4d/4c/4B/ A/c/4B/4A/4G/4F/ | %22
 d/4c/4B/4A/4B/G/ (6:4:4F3/4G/4F/4=E/4F/4D/4B/ F/4E/4F/4E/4F/4E/4F/ | F2 [A,CF]4 | %24
 c>c c-c/4d/4c/4B/4 c/4B/4A/4B/4A/4G/4A/8G/8F/4 | %25
 f>f f-f/4g/4f/4e/4 f/4e/4d/4e/8d/8c/8d/8c/8B/8c/4B/4 | B/F/4A/4B/d/ e2- e/c/4d/4e/4d/4c/ | %27
 d>d d-d/4c/4B/4A/4 B/4F/4B/4c/4d/4e/4f/4g/4 | %28
 _a/4g/4f/4e/4d/4e/4f/ =B/d/f/a/ a/4g/4a/4g/4g/4f/4e/4d/4 | %29
 e/4d/4c/4B/4_A/4B/4c/ F/A/c/e/ e/4d/4e/4d/4e/4d/4c/4=B/4 | %30
 c/E/F/8E/8D/E/4 A/^F/F/8=E/8D/E/4 e/=B/c/8B/8A/B/4 | c>c c-c/4G/4A/4=B/4 c/4d/4c/4B/4c/d/ | %32
 d/4e/4f/4e/4f/4e/4f/4e/4 f/4e/4f/4e/4f/4e/4f/4e/4 f/4e/4f/4e/4f/4e/4f/4e/4 | %33
 f/4e/4f/4e/4f/4e/4f/4e/4 f/4e/4f/4e/4f/4e/4f/4e/4 f/4e/4f/4e/4f/4e/4f/4e/4 | %34
 f/4e/4d/4c/4d/b/- b/a/4g/4a/c/- c/B/4A/4B/g/ | BB/8A/8G/4A/4c/4 F4- | %36
 F/B,/4C/4D/F/ F/D/4E/4F/_A/ A2- | A/G/4_A/4B/_d/ d/B/4c/4d/g/ g/B/=A/B/- | %38
 B/4D/4E/4F/4G/4A/4B/4c/4 d/e/4d/4c/4d/4e/4c/4 B/G/A/8G/8A/4B/ | B2 [DFB]4 | %40
 c>c c-c/4d/4c/4B/4 c/4B/4A/4B/4A/4G/4A/8G/8F/4 | %41
 f>f f-f/4g/4f/4e/4 f/4e/4d/4e/8d/8c/8d/8c/8B/8c/4B/4 | B/F/4A/4B/d/ e2- e/c/4d/4e/4d/4c/ | %43
 d>d d-d/4c/4B/4A/4 B/4F/4B/4c/4d/4e/4f/4g/4 | %44
 _a/4g/4f/4e/4d/4e/4f/ =B/d/f/a/ a/4g/4a/4g/4g/4f/4e/4d/4 | %45
 e/4d/4c/4B/4_A/4B/4c/ F/A/c/e/ e/4d/4e/4d/4e/4d/4c/4=B/4 | %46
 c/E/F/8E/8D/E/4 A/^F/F/8=E/8D/E/4 e/=B/c/8B/8A/B/4 | c>c c-c/4G/4A/4=B/4 c/4d/4c/4B/4c/d/ | %48
 d/4e/4f/4e/4f/4e/4f/4e/4 f/4e/4f/4e/4f/4e/4f/4e/4 f/4e/4f/4e/4f/4e/4f/4e/4 | %49
 f/4e/4f/4e/4f/4e/4f/4e/4 f/4e/4f/4e/4f/4e/4f/4e/4 f/4e/4f/4e/4f/4e/4f/4e/4 | %50
 f/4e/4d/4c/4d/b/- b/a/4g/4a/c/- c/B/4A/4B/g/ | BB/8A/8G/4A/4c/4 F4- | %52
 F/B,/4C/4D/F/ F/D/4E/4F/_A/ A2- | A/G/4_A/4B/_d/ d/B/4c/4d/g/ g/B/=A/B/- | %54
 B/4D/4E/4F/4G/4A/4B/4c/4 d/e/4d/4c/4d/4e/4c/4 B/G/A/8G/8A/4B/ | B2 !fermata![DFB]4 |] %56
V:2
 [FB]/ z/ z [FB] z z2 | F2 [DF] z z2 | E2 D2[I:staff +1] C2 | C2 [F,B,]2[I:staff -1] z2 | %4
 z/ =E3/2 E z z2 | z/ ^F3/2 F z z2 | x6 | z2 [GBc] z z2 | x6 | x6 | x6 | x6 | [FB]2 [FB] z z2 | %13
 F2 [DF] z z2 | E2 D2[I:staff +1] C2 | C2 [F,B,]2[I:staff -1] z2 | z/ =E3/2 E z z2 | %17
 z/ ^F3/2 F z z2 | x6 | z2 [GBc] z z2 | x6 | x6 | x6 | x6 | x6 | x6 | %26
 z/ F3/2 z/ G/4A/4B/4A/4G/ A2 | z/4 c/4B/4A/4B [FB] z z2 | x6 | x6 | x6 | z2 [CEG] z z2 | x6 | x6 | %34
 x6 | x6 | x6 | x6 | x6 | x6 | x6 | x6 | z/ F3/2 z/ G/4A/4B/4A/4G/ A2 | z/4 c/4B/4A/4B [FB] z z2 | %44
 x6 | x6 | x6 | z2 [CEG] z z2 | x6 | x6 | x6 | x6 | x6 | x6 | x6 | x6 |] %56
V:3
 [B,D]2 [B,,B,]2 z2 | [B,D]2 [B,,B,]2 z2 | B,2 B,2 B,A, | B,F, B,,2 z2 | [B,C]2 [B,,G,]2 z2 | %5
 [A,C]2 [A,,A,]2 z2 | [G,D]2 [G,,G,]2 F,2 | [=E,C]2 [=E,,E,]2 z2 | F,2 F,,2 =E,2 | D,2 D,,2 C,2 | %10
 B,,2 C,2 C,,2 | z z/ A,,/4C,/4 F,4 | [B,D]2 [B,,B,]2 z2 | [B,D]2 [B,,B,]2 z2 | B,2 B,2 B,A, | %15
 B,F, B,,2 z2 | [B,C]2 [B,,G,]2 z2 | [A,C]2 [A,,A,]2 z2 | [G,D]2 [G,,G,]2 F,2 | %19
 [=E,C]2 [=E,,E,]2 z2 | F,2 F,,2 =E,2 | D,2 D,,2 C,2 | B,,2 C,2 C,,2 | z z/ A,,/4C,/4 F,4 | %24
 [F,A,C]2 [F,,F,]2 z2 | [E,A,]2 [E,,E,]2 z2 | D,2 C,2 F,2 | B,2 [B,,B,]2 z2 | [=B,D]2 [G,D]2 z2 | %29
 [C,C]2 [_A,C]2 z2 | [^F,A,]2 G,2 [G,,G,-]2 | [C,G,]2 [C,,C,]2 z2 | %32
 C,/D,/E,/G,/ C/G,/F,/E,/ D,/C,/B,,/G,/ | A,,/B,,/C,/F,/ A,/C/B,/A,/ G,/F,/F/A,/ | B,>G =E>F G,>E | %35
 F,2- (6:4:4F,3/2G,/F,/E,/ (4:3:4F,/E,/D,/E,/D,/ | D,2 D,,>D, (4:3:4B,,/C,/D,/C,/B,,/ | %37
 E,2 D,/4=E,/4F,/4E,/4F,/4E,/4F,/4E,/4 F,/4E,/4F,/4E,/4F,/4E,/4D,/4E,/4 | F,2 E,2 F,2 | %39
 z z/ D,/4F,/4 B,4 | [F,A,C]2 [F,,F,]2 z2 | [E,A,]2 [E,,E,]2 z2 | D,2 C,2 F,2 | B,2 [B,,B,]2 z2 | %44
 [=B,D]2 [G,D]2 z2 | [C,C]2 [_A,C]2 z2 | [^F,A,]2 G,2 [G,,G,-]2 | [C,G,]2 [C,,C,]2 z2 | %48
 C,/D,/E,/G,/ C/G,/F,/E,/ D,/C,/B,,/G,/ | A,,/B,,/C,/F,/ A,/C/B,/A,/ G,/F,/F/A,/ | B,>G =E>F G,>E | %51
 F,2- (6:4:4F,3/2G,/F,/E,/ (4:3:4F,/E,/D,/E,/D,/ | D,2 D,,>D, (4:3:4B,,/C,/D,/C,/B,,/ | %53
 E,2 D,/4=E,/4F,/4E,/4F,/4E,/4F,/4E,/4 F,/4E,/4F,/4E,/4F,/4E,/4D,/4E,/4 | F,2 E,2 F,2 | %55
 z z/ D,/4F,/4 !fermata!B,4 |] %56
V:4
 x6 | x6 | x6 | x6 | z G G z z2 | z A z4 | x6 | x6 | x6 | x6 | x6 | x6 | x6 | x6 | x6 | x6 | %16
 z G G z z2 | z A z4 | x6 | x6 | x6 | x6 | x6 | x6 | x6 | x6 | z B z4 | x6 | x6 | x6 | x6 | x6 | %32
 x6 | x6 | x6 | x6 | x6 | x6 | x6 | x6 | x6 | x6 | z B z4 | x6 | x6 | x6 | x6 | x6 | x6 | x6 | x6 | %51
 x6 | x6 | x6 | x6 | x6 |] %56
V:5
 x6 | x6 | x6 | x6 | x6 | z3/2 c/ c z z2 | x6 | x6 | x6 | x6 | x6 | x6 | x6 | x6 | x6 | x6 | x6 | %17
 z3/2 c/ c z z2 | x6 | x6 | x6 | x6 | x6 | x6 | x6 | x6 | x6 | x6 | x6 | x6 | x6 | x6 | x6 | x6 | %34
 x6 | x6 | x6 | x6 | x6 | x6 | x6 | x6 | x6 | x6 | x6 | x6 | x6 | x6 | x6 | x6 | x6 | x6 | x6 | %53
 x6 | x6 | x6 |] %56
V:6
 x6 | x6 | x6 | x6 | x6 | x6 | x6 | x6 | x6 | x6 | x6 | F,,6 | x6 | x6 | x6 | x6 | x6 | x6 | x6 | %19
 x6 | x6 | x6 | x6 | F,,6 | x6 | x6 | x6 | x6 | x6 | x6 | x6 | x6 | x6 | x6 | x6 | x6 | x6 | x6 | %38
 x6 | B,,6 | x6 | x6 | x6 | x6 | x6 | x6 | x6 | x6 | x6 | x6 | x6 | x6 | x6 | x6 | x6 | %55
 !fermata!B,,6 |] %56

